!!!!SEGMENT: pl-cz--iii-553--001-004_raszek-waclaw--missa-in-f-et-incarnatus.krn
!!!cenid: 18xx:997
!!!COM: Raszek, Wacław
!!!COM-rismid: pe30020314
!!!CDT: <1848->1848
!!!CNT:
!!!OPR: Missa in F
!!!OTL: Et incarnatus
!!!OMV: 004
!!!PDT: 1829
!!!AGN: Sacred; Mass
!!!SMS-siglum: PL-CZ
!!!SMS-shelfmark: III-553
!!!SMS-shelfwork: 001-004 M
!!!SMS-variant:
!!!SMS-altvar:
!!!NIFC-rismid: 300001048
!!!URL-scan: http://repozytorium.nifc.pl/skany/pl-cz-nut--iii-553
!!!ONB-nifc: UWAGA: części Mszy: Kyrie, Gloria, Credo, Et incarnatus, Et resurrexit, Sanctus, Pleni sunt, Benedictus, Agnus Dei, Dona nobis
!!!key: d
**kern	**kern	**dynam	**kern	**dynam	**kern	**dynam	**kern	**text	**dynam	**kern	**text	**dynam	**kern	**text	**dynam	**kern	**text	**dynam	**kern	**kern	**kern	**dynam	**kern	**dynam
*	*group4	*	*group4	*	*group4	*	*group3	*	*	*group3	*	*	*group3	*	*	*group3	*	*	*group2	*group2	*group1	*	*group1	*
*part12	*part11	*part11	*part10	*part10	*part9	*part9	*part8	*part8	*part8	*part7	*part7	*part7	*part6	*part6	*part6	*part5	*part5	*part5	*part4	*part3	*part2	*part2	*part1	*part1
*staff12	*staff11	*	*staff10	*	*staff9	*	*staff8	*staff8	*	*staff7	*staff7	*	*staff6	*staff6	*	*staff5	*staff5	*	*staff4	*staff3	*staff2	*	*staff1	*
*I"Organo.	*I"Alto Viola	*	*I"Violino Secondo.	*	*I"Violino Primo.	*	*I"Basso.	*	*	*I"Tenore.	*	*	*I"Alto.	*	*	*I"Canto.	*	*	*I"Corno Secondo in F.	*I"Corno Primo in F.	*I"Clarinetto Secondo in B.	*	*I"Clarinetto Primo. in B.	*
*I'org	*I'a-vla	*	*I'vl 2	*	*I'vl 1	*	*I'B	*	*	*I'T	*	*	*I'A	*	*	*I'S	*	*	*I'cor 2 in F	*I'cor 1 in F	*I'cl 2 in B	*	*I'cl 1 in B	*
*Iorgan	*Iviola	*	*Ivioln	*	*Ivioln	*	*Ibass	*	*	*Itenor	*	*	*Ialto	*	*	*Isoprn	*	*	*Icor	*Icor	*Iclars	*	*Iclars	*
*ICklav	*ICstr	*	*ICstr	*	*ICstr	*	*ICvox	*	*	*ICvox	*	*	*ICvox	*	*	*ICvox	*	*	*ICbras	*ICbras	*ICww	*	*ICww	*
*IGcont	*	*	*	*	*	*	*IGcoro	*	*	*IGcoro	*	*	*IGcoro	*	*	*IGcoro	*	*	*	*	*	*	*	*
*clefF4	*clefC3	*	*clefG2	*	*clefG2	*	*clefF4	*	*	*clefC4	*	*	*clefC3	*	*	*clefC1	*	*	*	*	*clefG2	*	*clefG2	*
*	*	*	*	*	*	*	*	*	*	*	*	*	*	*	*	*	*	*	*	*	*ITrd1c2	*	*ITrd1c2	*
*k[b-]	*k[b-]	*	*k[b-]	*	*k[b-]	*	*k[b-]	*	*	*k[b-]	*	*	*k[b-]	*	*	*k[b-]	*	*	*	*	*k[b-]	*	*k[b-]	*
*d:	*d:	*	*d:	*	*d:	*	*d:	*	*	*d:	*	*	*d:	*	*	*d:	*	*	*	*	*d:	*	*d:	*
*M2/4	*M2/4	*	*M2/4	*	*M2/4	*	*M2/4	*	*	*M2/4	*	*	*M2/4	*	*	*M2/4	*	*	*	*	*M2/4	*	*M2/4	*
=1	=1	=1	=1	=1	=1	=1	=1	=1	=1	=1	=1	=1	=1	=1	=1	=1	=1	=1	=1	=1	=1	=1	=1	=1
*	*	*	*	*	*	*^	*	*	*	*	*	*	*	*	*	*	*	*	*	*	*	*	*	*
!	!	!	!	!	!	!	!	!LO:TX:a:i:t=Tu&colon;	!	!	!LO:TX:a:i:t=Tutti	!	!	!	!	!	!	!	!	!	!	!	!	!	!
!LO:TX:a:B:t=Adagio.	!	!	!LO:TX:a:B:t=Largo.	!	!	!LO:DY:a:t=p	!LO:DY:b	!LO:TX:a:B:t=Largo.	!	!	!LO:TX:a:B:t=Andante. Largo.	!	!	!LO:TX:a:B:t=Largo.	!	!	!LO:TX:a:B:t=Largo.	!	!	!LO:TX:a:i:t=Et in Carnatus Tacet.	!LO:TX:a:i:t=Et in Carnatus Tacet.	!LO:TX:a:B:t=Largo.	!	!LO:TX:a:B:t=Andante Largo.	!
8D\	16r	p	16r	p	(16dd\LL	p	fp	4D\	Et	.	4A\	Et	p	4f\	Et	.	4dd\	Et	.	2ryy	2ryy	8ff\	p	8aa\	p
.	16d\LL	.	16f/LL	.	16a\)	.	.	.	.	.	.	.	.	.	.	.	.	.	.	.	.	.	.	.	.
8r	16d\	.	16f/	.	16a|\	.	.	.	.	.	.	.	.	.	.	.	.	.	.	.	.	8r	.	8r	.
.	16d\JJ	.	16f/JJ	.	16a|\JJ	.	.	.	.	.	.	.	.	.	.	.	.	.	.	.	.	.	.	.	.
!	!	!	!	!	!	!	!	!	!	!LO:DY:a:t=pia.	!	!	!	!	!	!LO:DY:a	!	!	!LO:DY:a	!	!	!	!	!	!
8D\	16r	.	16r	.	16r	.	.	8D\	in-	p	8d\	in-	.	8f\	in-	p	8a\	in-	p	.	.	8ff\	.	8aa\	.
.	16d\LL	.	16f/LL	.	16a\LL	.	.	.	.	.	.	.	.	.	.	.	.	.	.	.	.	.	.	.	.
8r	16d\	.	16f/	.	16a\	.	.	8D\	-car-	.	8d\	-Car-	.	8f\	-car-	.	8a\	-car-	.	.	.	8r	.	8r	.
.	16d\JJ	.	16f/JJ	.	16a\JJ	.	.	.	.	.	.	.	.	.	.	.	.	.	.	.	.	.	.	.	.
*	*	*	*	*	*	*v	*v	*	*	*	*	*	*	*	*	*	*	*	*	*	*	*	*	*	*
=2	=2	=2	=2	=2	=2	=2	=2	=2	=2	=2	=2	=2	=2	=2	=2	=2	=2	=2	=2	=2	=2	=2	=2	=2
8C#X\	16r	.	16r	.	16r	.	8.C#X/	-na-	.	8.e\	-na-	.	8.g\	-na-	.	8.b-\	-na-	.	2ryy	2ryy	(4gg\	.	(4bb-\	rf
.	16e\LL	.	16g/LL	.	16b-\LL	.	.	.	.	.	.	.	.	.	.	.	.	.	.	.	.	.	.	.
8r	16e\	.	16g/	.	16b-\	.	.	.	.	.	.	.	.	.	.	.	.	.	.	.	.	.	.	.
.	16e\JJ	.	16g/JJ	.	16b-\JJ	.	16C#/	-tus	.	16e\	-tus	.	16g\	-tus	.	16b-\	-tus	.	.	.	.	.	.	.
8D\	16r	.	16r	.	(16a\LL	.	8D\	est	.	8f\	est	.	8f\	est	.	8a\	est	.	.	.	8ff\)	.	8aa\)	.
.	16f\LL	.	16f/LL	.	16dd\)	.	.	.	.	.	.	.	.	.	.	.	.	.	.	.	.	.	.	.
8r	16d\	.	16f/	.	16dd|\	.	16r	.	.	16r	.	.	16r	.	.	16r	.	.	.	.	8r	.	8r	.
.	16d\JJ	.	16f/JJ	.	16dd|\JJ	.	16D\	de	.	16A\	de	.	16f\	de	.	16dd\	de	.	.	.	.	.	.	.
!	!	!	!	!	!	!	!	!	!	!	!	!	!	!	!	!LO:LB:g=original	!	!	!	!	!	!	!	!
=3	=3	=3	=3	=3	=3	=3	=3	=3	=3	=3	=3	=3	=3	=3	=3	=3	=3	=3	=3	=3	=3	=3	=3	=3
*	*	*	*	*	*	*	*	*	*	*	*	*	*	*	*	*	*	*	*	*	*2\right	*	*2\right	*
8E\	16r	.	16r	.	16r	.	4E\	spi-	.	4c\	Spi-	.	4g\	Spi-	.	4cc\	spi-	.	2ryy	2ryy	2cc\	.	2gg\	.
.	16B-/LL	.	16g/LL	.	16cc\LL	.	.	.	.	.	.	.	.	.	.	.	.	.	.	.	.	.	.	.
8r	16B-/	.	16g/	.	16cc\	.	.	.	.	.	.	.	.	.	.	.	.	.	.	.	.	.	.	.
.	16B-/JJ	.	16g/JJ	.	16cc\JJ	.	.	.	.	.	.	.	.	.	.	.	.	.	.	.	.	.	.	.
8E\	16r	.	16r	.	(16cc\LL	.	8.E\	-ri-	.	8.c\	-ri-	.	8.g\	-ri-	.	8.cc\	-ri-	.	.	.	.	.	.	.
.	16B-/LL	.	16g/LL	.	16ee\	.	.	.	.	.	.	.	.	.	.	.	.	.	.	.	.	.	.	.
8r	16B-/	.	16g/	.	16gg\)	.	.	.	.	.	.	.	.	.	.	.	.	.	.	.	.	.	.	.
.	16B-/JJ	.	16g/JJ	.	16bb-'\JJ	.	16E\	-tu	.	16c\	-tu	.	16g\	-tu	.	16b-\	-tu	.	.	.	.	.	.	.
=4	=4	=4	=4	=4	=4	=4	=4	=4	=4	=4	=4	=4	=4	=4	=4	=4	=4	=4	=4	=4	=4	=4	=4	=4
8F\	8c/L	.	8cc\L	.	(16gg#X\LL	.	8F\	san-	.	8c\	San-	.	8f\	San-	.	8a\	san-	.	2ryy	2ryy	8cc\L	.	8aa\L	.
.	.	.	.	.	16aa\	.	.	.	.	.	.	.	.	.	.	.	.	.	.	.	.	.	.	.
8r	8F/J	.	8a\J	.	16ee\	.	8F\	-cto	.	8c\	-cto	.	8f\	-cto	.	8a\	-cto	.	.	.	8a\J	.	8ff\J	.
!	!	!	!	!	!LO:TX:t=P:global:problem=wszystkie custos użyte jako łamanie pięciolinii	!	!	!	!	!	!	!	!	!	!	!	!	!	!	!	!	!	!	!
!	!	!	!	!	!LO:SIC:v:t=custos	!	!	!	!	!	!	!	!	!	!	!	!	!	!	!	!	!	!	!
.	.	.	.	.	16ff\JJ)	.	.	.	.	.	.	.	.	.	.	.	.	.	.	.	.	.	.	.
8F\	4r	.	4r	.	(16bn\LL	.	4r	.	.	4r	.	.	4r	.	.	4r	.	.	.	.	4r	.	4r	.
.	.	.	.	.	16cc\	.	.	.	.	.	.	.	.	.	.	.	.	.	.	.	.	.	.	.
8r	.	.	.	.	16g#X\	.	.	.	.	.	.	.	.	.	.	.	.	.	.	.	.	.	.	.
.	.	.	.	.	16a\JJ)	.	.	.	.	.	.	.	.	.	.	.	.	.	.	.	.	.	.	.
!	!LO:LB:g=original	!	!LO:LB:g=original	!	!	!	!LO:LB:g=original	!	!	!LO:LB:g=original	!	!	!LO:PB:g=original	!	!	!	!	!	!	!	!	!	!	!
=5	=5	=5	=5	=5	=5	=5	=5	=5	=5	=5	=5	=5	=5	=5	=5	=5	=5	=5	=5	=5	=5	=5	=5	=5
8A\	(16F/LL	.	(16a\LL	.	16r	.	4.A\	ex	.	4.f\	ex	.	4.f\	ex	.	4.cc\	Ex	.	2ryy	2ryy	2cc\	.	2ff\	.
.	16A/JJ)	.	16cc\	.	16cc'\LL	.	.	.	.	.	.	.	.	.	.	.	.	.	.	.	.	.	.	.
8r	16r	.	16a\JJ)	.	(16ff\	.	.	.	.	.	.	.	.	.	.	.	.	.	.	.	.	.	.	.
.	16f\	.	16r	.	16aa\JJ)	.	.	.	.	.	.	.	.	.	.	.	.	.	.	.	.	.	.	.
8A\	(16A/LL	.	(16f/LL	.	16r	.	.	.	.	.	.	.	.	.	.	.	.	.	.	.	.	.	.	.
.	16c/JJ)	.	16a/)	.	16ccc|\LL	.	.	.	.	.	.	.	.	.	.	.	.	.	.	.	.	.	.	.
8r	16r	.	16f'/JJ	.	(16aa\	.	8A\	Ma-	.	8c\	Ma-	.	8f\	Ma-	.	8cc\	Ma-	.	.	.	.	.	.	.
.	16A/	.	16ryy	.	16ff\JJ)	.	.	.	.	.	.	.	.	.	.	.	.	.	.	.	.	.	.	.
=6	=6	=6	=6	=6	=6	=6	=6	=6	=6	=6	=6	=6	=6	=6	=6	=6	=6	=6	=6	=6	=6	=6	=6	=6
8B-\	(16B-/LL	.	(16g/LL	.	16r	.	4.B-\	-ri-	.	4.d\	-ri-	.	8d\	-ri-	.	4.dd\	-ri-	.	2ryy	2ryy	2dd\	.	2gg\	.
.	16d/JJ)	.	16b-/)	.	16dd'\LL	.	.	.	.	.	.	.	.	.	.	.	.	.	.	.	.	.	.	.
8r	16r	.	16g'/JJ	.	(16ff#X\	.	.	.	.	.	.	.	4g\	.	.	.	.	.	.	.	.	.	.	.
.	16B-/	.	16r	.	16gg\JJ)	.	.	.	.	.	.	.	.	.	.	.	.	.	.	.	.	.	.	.
8B-\	(16B-/LL	.	(16g/LL	.	16r	.	.	.	.	.	.	.	.	.	.	.	.	.	.	.	.	.	.	.
.	16d/JJ)	.	16b-/	.	16ddd'\LL	.	.	.	.	.	.	.	.	.	.	.	.	.	.	.	.	.	.	.
8r	16r	.	16g'/JJ)	.	(16bb-\	.	8B-\	-a	.	8B-\	-a	.	8g\	-a	.	8dd\	-a	.	.	.	.	.	.	.
.	16B-/	.	16r	.	16gg\JJ)	.	.	.	.	.	.	.	.	.	.	.	.	.	.	.	.	.	.	.
!LO:LB:g=original	!	!	!	!	!	!	!	!	!	!	!	!	!	!	!	!	!	!	!	!	!	!	!	!
=7	=7	=7	=7	=7	=7	=7	=7	=7	=7	=7	=7	=7	=7	=7	=7	=7	=7	=7	=7	=7	=7	=7	=7	=7
8Bn\	(16Bn/LL	.	(16d/LL	.	16r	.	4.Bn\	Vir-	.	4.d\	Vir-	.	4.g\	Vir-	.	4.ff\	Vir-	.	2ryy	2ryy	2dd\	.	4.gg\	.
.	16d/JJ)	.	16g/)	.	16dd|\LL	.	.	.	.	.	.	.	.	.	.	.	.	.	.	.	.	.	.	.
8r	16r	.	16f#X'/JJ	.	(16aa\	.	.	.	.	.	.	.	.	.	.	.	.	.	.	.	.	.	.	.
.	16B/	.	16r	.	16gg\JJ)	.	.	.	.	.	.	.	.	.	.	.	.	.	.	.	.	.	.	.
8B\	(16B/LL	.	(16d/LL	.	16r	.	.	.	.	.	.	.	.	.	.	.	.	.	.	.	.	.	.	.
.	16d/JJ)	.	16g/)	.	16dd|\LL	.	.	.	.	.	.	.	.	.	.	.	.	.	.	.	.	.	.	.
8r	16r	.	16f#'/JJ	.	(16gg\	.	8B\	-gi-	.	8d\	-gi-	.	8g\	-gi-	.	8ff\	-gi-	.	.	.	.	.	8ff\	.
.	16B/	.	16r	.	16ff\JJ)	.	.	.	.	.	.	.	.	.	.	.	.	.	.	.	.	.	.	.
!	!	!	!	!	!	!	!	!	!	!	!	!	!	!	!	!	!	!	!	!	!LO:LB:g=original	!	!LO:LB:g=original	!
=8	=8	=8	=8	=8	=8	=8	=8	=8	=8	=8	=8	=8	=8	=8	=8	=8	=8	=8	=8	=8	=8	=8	=8	=8
8c\	(16c\LL	.	(16e/LL	.	16r	.	4c\	-ne	.	4c\	-ne	.	4g\	-ne	.	4ee\	-ne	.	2ryy	2ryy	8cc\	.	8ee\	.
.	16e\JJ)	.	16g/)	.	16ee'\LL	.	.	.	.	.	.	.	.	.	.	.	.	.	.	.	.	.	.	.
8r	16r	.	16e'/JJ	.	(16cc\	.	.	.	.	.	.	.	.	.	.	.	.	.	.	.	8r	.	8r	.
!	!LO:TX:a:t=e	!	!	!	!	!	!	!	!	!	!	!	!	!	!	!	!	!	!	!	!	!	!	!
.	16e\	.	16r	.	16gg\JJ)	.	.	.	.	.	.	.	.	.	.	.	.	.	.	.	.	.	.	.
8C/	(16c\LL	.	(16e/LL	.	(16ff\LL	.	8r	.	.	8r	.	.	8r	.	.	8r	.	.	.	.	8ee\	.	8gg\	.
.	16e\JJ)	.	16g/)	.	16ee\	.	.	.	.	.	.	.	.	.	.	.	.	.	.	.	.	.	.	.
8r	16r	.	16e'/JJ	.	16dd\	.	8C/	et	.	8G/	et	.	8e\	et	.	8cc\	et	.	.	.	8r	.	8r	.
.	16e\	.	16r	.	16cc\JJ)	.	.	.	.	.	.	.	.	.	.	.	.	.	.	.	.	.	.	.
!	!LO:LB:g=original	!	!	!	!	!	!	!	!	!	!	!	!	!	!	!	!	!	!	!	!	!	!	!
=9	=9	=9	=9	=9	=9	=9	=9	=9	=9	=9	=9	=9	=9	=9	=9	=9	=9	=9	=9	=9	=9	=9	=9	=9
8C#X\	8c#X\L	.	(16e/LL	.	16r	.	4C#X/	ho-	.	4e\	ho-	.	4g\	ho-	.	4b-\	ho-	.	2ryy	2ryy	(4gg\	.	4bb-\	rf
.	.	.	16g/)	.	(16b-\LL	.	.	.	.	.	.	.	.	.	.	.	.	.	.	.	.	.	.	.
8r	8f\	.	16e'/JJ	.	16gg\	.	.	.	.	.	.	.	.	.	.	.	.	.	.	.	.	.	.	.
!	!	!	!	!	!LO:SIC:v:t=custos	!	!	!	!	!	!	!	!	!	!	!	!	!	!	!	!	!	!	!
.	.	.	16r	.	16b-\JJ)	.	.	.	.	.	.	.	.	.	.	.	.	.	.	.	.	.	.	.
!	!	!	!	!	!LO:LB:g=original	!	!	!	!	!	!	!	!	!	!	!	!	!	!	!	!	!	!	!
4D\	8d\	.	(16f/LL	.	16r	.	4D/	-mo	.	4f\	-mo	.	4f\	-mo	.	4a\	-mo	.	.	.	4ff\)	.	8aa\L	.
.	.	.	16a/)	.	16a'\LL	.	.	.	.	.	.	.	.	.	.	.	.	.	.	.	.	.	.	.
!	!	!	!	!	!	!	!	!	!	!	!	!	!	!	!	!	!	!	!	!	!	!	!LO:N:vis=8	!
.	8A\J	.	16f'/JJ	.	(16ff\	.	.	.	.	.	.	.	.	.	.	.	.	.	.	.	.	.	16aa\J	.
!	!	!	!	!	!	!	!	!	!	!	!	!	!	!	!	!	!	!	!	!	!	!	!LO:TX:t=P:problem=zbędna pauza 8r	!
!	!	!	!	!	!	!	!	!	!	!	!	!	!	!	!	!	!	!	!	!	!	!	!LO:N:vis=8	!
.	.	.	16r	.	16a\JJ)	.	.	.	.	.	.	.	.	.	.	.	.	.	.	.	.	.	16r	.
!	!	!	!LO:LB:g=original	!	!	!	!	!	!	!	!	!	!	!	!	!LO:LB:g=original	!	!	!	!	!	!	!	!
=10	=10	=10	=10	=10	=10	=10	=10	=10	=10	=10	=10	=10	=10	=10	=10	=10	=10	=10	=10	=10	=10	=10	=10	=10
8BB-X\	8B-X/L	.	8d/L	.	16r	.	(4BB-/	fa-	.	(4f\	fa-	.	(4d\	fa-	.	4.g\	fa-	.	2ryy	2ryy	4dd\	.	4gg\	.
.	.	.	.	.	16dd'\LL	.	.	.	.	.	.	.	.	.	.	.	.	.	.	.	.	.	.	.
8r	8B-/	.	8d/	.	(16b-\	.	.	.	.	.	.	.	.	.	.	.	.	.	.	.	.	.	.	.
.	.	.	.	.	16g\JJ)	.	.	.	.	.	.	.	.	.	.	.	.	.	.	.	.	.	.	.
8C\	8G/	.	8B-/	.	(16f/LL	.	8C/)	.	.	8e\)	.	.	8e\)	.	.	.	.	.	.	.	4b-\	.	(16ff\LL	.
.	.	.	.	.	16e/	.	.	.	.	.	.	.	.	.	.	.	.	.	.	.	.	.	16ee\	.
8r	8G/J	.	8B-/J	.	16d/	.	8C/	-ctus	.	8c\	-ctus	.	8e\	-ctus	.	8g\	-ctus	.	.	.	.	.	16dd\	.
.	.	.	.	.	16e/JJ)	.	.	.	.	.	.	.	.	.	.	.	.	.	.	.	.	.	16ee\JJ)	.
=11	=11	=11	=11	=11	=11	=11	=11	=11	=11	=11	=11	=11	=11	=11	=11	=11	=11	=11	=11	=11	=11	=11	=11	=11
!LO:TX:t=P:problem=mixed beam	!	!	!	!	!	!	!	!	!	!	!	!	!	!	!	!	!	!	!	!	!	!	!	!
8FF/L	8F/L	.	8A/L	.	8f/L	.	4F\	est	.	4c\	est	.	4f\	est	.	4f/	est	.	2ryy	2ryy	8a\L	.	8ff\L	.
8F\	8c 8F/	.	8A/	.	8f/	.	.	.	.	.	.	.	.	.	.	.	.	.	.	.	8a\	.	8ff\	.
8FF/J	8cJ 8F/	.	8A/J	.	8f/J	.	4r	.	.	4r	.	.	4r	.	.	4r	.	.	.	.	8a\J	.	8ff'\J	.
8r	8r	.	8r	.	8r	.	.	.	.	.	.	.	.	.	.	.	.	.	.	.	8r	.	8r	.
=12	=12	=12	=12	=12	=12	=12	=12	=12	=12	=12	=12	=12	=12	=12	=12	=12	=12	=12	=12	=12	=12	=12	=12	=12
!LO:TX:t=P:problem=mixed beam	!LO:TX:t=P:problem=mixed beam	!LO:DY:t=pf.	!	!	!	!	!	!	!	!	!	!LO:DY:a	!	!	!LO:DY:a	!	!	!LO:DY:b:t=for.	!	!	!	!	!	!
8FF/L	16F/KL	fp	16a-X/KL	fp	16cc\KL	fp	4.F\	Cru-	.	4.F/	Cru-	f	4.a-X\	Cru-	f	4.cc\	Cru-	f	2ryy	2ryy	2cc\	.	2aa-X\	fp
.	8f\	.	8a-/	.	8cc\	.	.	.	.	.	.	.	.	.	.	.	.	.	.	.	.	.	.	.
8F\J	.	.	.	.	.	.	.	.	.	.	.	.	.	.	.	.	.	.	.	.	.	.	.	.
.	8f\	.	8a-/	.	8cc\	.	.	.	.	.	.	.	.	.	.	.	.	.	.	.	.	.	.	.
8r	.	.	.	.	.	.	.	.	.	.	.	.	.	.	.	.	.	.	.	.	.	.	.	.
.	8f\	.	8a-/	.	8cc\	.	.	.	.	.	.	.	.	.	.	.	.	.	.	.	.	.	.	.
8F\	.	.	.	.	.	.	8F\	-ci-	.	8F/	-ci-	.	8a-\	-ci-	.	8cc\	-ci-	.	.	.	.	.	.	.
.	16f\Jk	.	16a-/Jk	.	16cc\Jk	.	.	.	.	.	.	.	.	.	.	.	.	.	.	.	.	.	.	.
!	!	!	!	!	!	!	!	!	!	!	!	!	!LO:LB:g=original	!	!	!	!	!	!	!	!	!	!	!
=13	=13	=13	=13	=13	=13	=13	=13	=13	=13	=13	=13	=13	=13	=13	=13	=13	=13	=13	=13	=13	=13	=13	=13	=13
!	!	!LO:DY:t=pf.	!LO:SIC:v:s=16a-/KL	!	!	!	!	!	!	!	!	!	!	!	!	!	!	!	!	!	!	!	!	!
8D-X\L	16f\KL	fp	16a/KL	fp	16dd-X\KL	fp	4D-X\	-fi-	.	4A-X\	-fi-	.	4f\	-fi-	.	4dd-X\	-fi-	.	2ryy	2ryy	2dd-X\	.	2ff\	fp
!	!	!	!LO:SIC:v:s=8a-/	!	!	!	!	!	!	!	!	!	!	!	!	!	!	!	!	!	!	!	!	!
.	8f\	.	8a/	.	8dd-\	.	.	.	.	.	.	.	.	.	.	.	.	.	.	.	.	.	.	.
8D-\J	.	.	.	.	.	.	.	.	.	.	.	.	.	.	.	.	.	.	.	.	.	.	.	.
!	!	!	!LO:SIC:v:s=8a-/	!	!	!	!	!	!	!	!	!	!	!	!	!	!	!	!	!	!	!	!	!
.	8f\	.	8a/	.	8dd-\	.	.	.	.	.	.	.	.	.	.	.	.	.	.	.	.	.	.	.
8r	.	.	.	.	.	.	4D-\	-xus	.	4A-\	-xus	.	4f\	-xus	.	4dd-\	-xus	.	.	.	.	.	.	.
!	!	!	!LO:SIC:v:s=8a-/	!	!	!	!	!	!	!	!	!	!	!	!	!	!	!	!	!	!	!	!	!
.	8f\	.	8a/	.	8dd-\	.	.	.	.	.	.	.	.	.	.	.	.	.	.	.	.	.	.	.
8D-\	.	.	.	.	.	.	.	.	.	.	.	.	.	.	.	.	.	.	.	.	.	.	.	.
!	!	!	!LO:SIC:v:s=16a-/Jk	!	!	!	!	!	!	!	!	!	!	!	!	!	!	!	!	!	!	!	!	!
.	16f\Jk	.	16a/Jk	.	16dd-\Jk	.	.	.	.	.	.	.	.	.	.	.	.	.	.	.	.	.	.	.
!LO:LB:g=original	!	!	!	!	!	!	!LO:LB:g=original	!	!	!LO:PB:g=original	!	!	!	!	!	!	!	!	!	!	!	!	!	!
=14	=14	=14	=14	=14	=14	=14	=14	=14	=14	=14	=14	=14	=14	=14	=14	=14	=14	=14	=14	=14	=14	=14	=14	=14
!LO:SIC:v:s=8c#\L	!	!	!	!	!	!	!	!	!	!	!	!	!	!	!	!	!	!	!	!	!	!	!	!
!LO:TX:t=P:problem=mixed beam	!	!LO:DY:t=pf.	!	!	!	!	!	!	!	!	!	!	!	!	!	!LO:N:vis=4.	!	!	!	!	!	!	!	!
8c\L	16c#X\KL	fp	16g#X/KL	fp	16een\KL	fp	8.c#X\	E-	.	8.c#X\	e-	.	8.g#X\	e-	.	8.een\	E-	.	2ryy	2ryy	2a-X\	.	2ff-X\	fp
.	8c#\	.	8g#/	.	8ee\	.	.	.	.	.	.	.	.	.	.	.	.	.	.	.	.	.	.	.
!LO:SIC:v:s=8C#/J	!	!	!	!	!	!	!	!	!	!	!	!	!	!	!	!	!	!	!	!	!	!	!	!
8C/J	.	.	.	.	.	.	.	.	.	.	.	.	.	.	.	.	.	.	.	.	.	.	.	.
.	8c#\	.	8g#/	.	8ee\	.	16c#\	-ti-	.	16c#\	-ti-	.	16g#\	-ti-	.	16ee\	-ti-	.	.	.	.	.	.	.
8r	.	.	.	.	.	.	8c#\	-am	.	8c#\	-am	.	8g#\	-am	.	8ee\	-am	.	.	.	.	.	.	.
.	8c#\	.	8g#/	.	8ee\	.	.	.	.	.	.	.	.	.	.	.	.	.	.	.	.	.	.	.
!LO:SIC:v:s=8c#\	!	!	!	!	!	!	!	!	!	!	!	!	!	!	!	!	!	!	!	!	!	!	!	!
8c\	.	.	.	.	.	.	8c#\	pro	.	8c#\	pro	.	8g#\	pro	.	8ee\	pro	.	.	.	.	.	.	.
.	16c#\Jk	.	16g#/Jk	.	16ee\Jk	.	.	.	.	.	.	.	.	.	.	.	.	.	.	.	.	.	.	.
=15	=15	=15	=15	=15	=15	=15	=15	=15	=15	=15	=15	=15	=15	=15	=15	=15	=15	=15	=15	=15	=15	=15	=15	=15
!	!	!LO:DY:t=pf.	!	!	!	!	!	!	!	!	!	!	!	!	!	!	!	!	!	!	!	!	!	!
8G#X\L	16G#X/KL	fp	16bnKL 16e/	fp	16dd\KL	fp	4G#X\	no-	.	4Bn\	no-	.	4e\	no-	.	4dd\	no-	.	2ryy	2ryy	2ddn\	.	2eenX\	fp
.	8G#/	.	8b 8e/	.	8dd\	.	.	.	.	.	.	.	.	.	.	.	.	.	.	.	.	.	.	.
8G#\J	.	.	.	.	.	.	.	.	.	.	.	.	.	.	.	.	.	.	.	.	.	.	.	.
.	8G#/	.	8b 8e/	.	8dd\	.	.	.	.	.	.	.	.	.	.	.	.	.	.	.	.	.	.	.
8r	.	.	.	.	.	.	8G#\	-bis	.	8B\	-bis	.	8e\	-bis	.	8dd\	-bis	.	.	.	.	.	.	.
.	8G#/	.	8b 8e/	.	8dd\	.	.	.	.	.	.	.	.	.	.	.	.	.	.	.	.	.	.	.
8G#\	.	.	.	.	.	.	8G#\	sub	.	8B\	sub	.	8e\	sub	.	8dd\	sub	.	.	.	.	.	.	.
.	16G#/Jk	.	16bJk 16e/	.	16dd\Jk	.	.	.	.	.	.	.	.	.	.	.	.	.	.	.	.	.	.	.
!	!LO:LB:g=original	!	!	!	!LO:LB:g=original	!	!	!	!	!	!	!	!	!	!	!LO:LB:g=original	!	!	!	!	!	!	!	!
=16	=16	=16	=16	=16	=16	=16	=16	=16	=16	=16	=16	=16	=16	=16	=16	=16	=16	=16	=16	=16	=16	=16	=16	=16
!LO:TX:t=P:problem=mixed beam	!	!LO:DY:t=pf.	!	!	!	!	!	!	!	!	!	!	!	!	!	!	!	!	!	!	!	!	!	!
8A\L	16A/KL	fp	16eKL 16c/	fp	16cc\KL	fp	4.A\	Pon-	.	4.A\	Pon-	.	4.e\	Pon-	.	4.cc\	Pon-	.	2ryy	2ryy	2cc\	.	2ee\	fp
.	8A/	.	8e 8c/	.	8cc\	.	.	.	.	.	.	.	.	.	.	.	.	.	.	.	.	.	.	.
8AA/J	.	.	.	.	.	.	.	.	.	.	.	.	.	.	.	.	.	.	.	.	.	.	.	.
.	8A/	.	8e 8c/	.	8cc\	.	.	.	.	.	.	.	.	.	.	.	.	.	.	.	.	.	.	.
8r	.	.	.	.	.	.	.	.	.	.	.	.	.	.	.	.	.	.	.	.	.	.	.	.
.	8A/	.	8e 8c/	.	8cc\	.	.	.	.	.	.	.	.	.	.	.	.	.	.	.	.	.	.	.
8A\	.	.	.	.	.	.	8A\	-ti-	.	8A\	-ti-	.	8e\	-ti-	.	8cc\	-ti-	.	.	.	.	.	.	.
.	16A/Jk	.	16eJk 16c/	.	16cc\Jk	.	.	.	.	.	.	.	.	.	.	.	.	.	.	.	.	.	.	.
=17	=17	=17	=17	=17	=17	=17	=17	=17	=17	=17	=17	=17	=17	=17	=17	=17	=17	=17	=17	=17	=17	=17	=17	=17
!LO:TX:t=P:problem=mixed beam	!LO:TX:t=P:problem=mixed beam	!LO:DY:t=pf.	!	!	!	!	!	!	!	!	!	!	!	!	!	!	!	!	!	!	!	!	!	!
8F\L	16F/KL	fp	16aKL 16f/	fp	16cc\KL	fp	4.F\	-o	.	4.f\	-o	.	4.a\	-o	.	4.cc\	-o	.	2ryy	2ryy	2cc\	.	2aa\	fp
.	8f\	.	8a 8f/	.	8aa\	.	.	.	.	.	.	.	.	.	.	.	.	.	.	.	.	.	.	.
8FF/J	.	.	.	.	.	.	.	.	.	.	.	.	.	.	.	.	.	.	.	.	.	.	.	.
.	8f\	.	8a 8f/	.	8aa\	.	.	.	.	.	.	.	.	.	.	.	.	.	.	.	.	.	.	.
8r	.	.	.	.	.	.	.	.	.	.	.	.	.	.	.	.	.	.	.	.	.	.	.	.
.	8f\	.	8a 8f/	.	8aa\	.	.	.	.	.	.	.	.	.	.	.	.	.	.	.	.	.	.	.
8F\	.	.	.	.	.	.	8F\	Pi-	.	8c\	Pi-	.	8a\	Pi-	.	8cc\	Pi-	.	.	.	.	.	.	.
.	16f\Jk	.	16aJk 16f/	.	16aa\Jk	.	.	.	.	.	.	.	.	.	.	.	.	.	.	.	.	.	.	.
!	!	!	!LO:LB:g=original	!	!	!	!	!	!	!	!	!	!	!	!	!	!	!	!	!	!	!	!LO:LB:g=original	!
=18	=18	=18	=18	=18	=18	=18	=18	=18	=18	=18	=18	=18	=18	=18	=18	=18	=18	=18	=18	=18	=18	=18	=18	=18
*	*	*	*	*	*	*	*2\right	*	*	*2\right	*	*	*2\right	*	*	*2\right	*	*	*	*	*	*	*	*
!LO:TX:t=P:problem=mixed beam	!	!LO:DY:t=pf.	!	!	!	!	!	!	!	!	!	!	!	!	!	!	!	!	!	!	!	!	!	!
8D#X\L	16d#X\KL	fp	16aKL 16f#X/	fp	16cc\KL	fp	2D#X\	-la-	.	2f#X\	-la-	.	2a\	-la-	.	2cc\	-la-	.	2ryy	2ryy	2cc\	.	2aa\	fp
.	8d#\	.	8a 8f#/	.	8aa\	.	.	.	.	.	.	.	.	.	.	.	.	.	.	.	.	.	.	.
8DD#y/J	.	.	.	.	.	.	.	.	.	.	.	.	.	.	.	.	.	.	.	.	.	.	.	.
.	8d#\	.	8a 8f#/	.	8aa\	.	.	.	.	.	.	.	.	.	.	.	.	.	.	.	.	.	.	.
8r	.	.	.	.	.	.	.	.	.	.	.	.	.	.	.	.	.	.	.	.	.	.	.	.
.	8d#\	.	8a 8f#/	.	8aa\	.	.	.	.	.	.	.	.	.	.	.	.	.	.	.	.	.	.	.
8D#\	.	.	.	.	.	.	.	.	.	.	.	.	.	.	.	.	.	.	.	.	.	.	.	.
.	16d#\Jk	.	16aJk 16f#/	.	16aa\Jk	.	.	.	.	.	.	.	.	.	.	.	.	.	.	.	.	.	.	.
=19	=19	=19	=19	=19	=19	=19	=19	=19	=19	=19	=19	=19	=19	=19	=19	=19	=19	=19	=19	=19	=19	=19	=19	=19
!LO:TX:t=P:problem=mixed beam	!LO:TX:t=P:problem=mixed beam	!LO:DY:t=pf.	!	!	!	!	!	!	!	!LO:SIC:v:s=4f#\	!	!	!	!	!	!	!	!	!	!	!	!	!	!
8Dn\L	16dn\KL	fp	16ff#XKL 16cc\	fp	16cc\KL	fp	4Dn\	-to	.	4f\	-to	.	4a\	-to	.	4cc\	-to	.	2ryy	2ryy	2cc\	.	2aa\	fp
.	8D/	.	8ff# 8cc\	.	8aa\	.	.	.	.	.	.	.	.	.	.	.	.	.	.	.	.	.	.	.
8DD/J	.	.	.	.	.	.	.	.	.	.	.	.	.	.	.	.	.	.	.	.	.	.	.	.
.	8D/	.	8ff# 8cc\	.	8aa\	.	.	.	.	.	.	.	.	.	.	.	.	.	.	.	.	.	.	.
8r	.	.	.	.	.	.	4r	.	.	4r	.	.	4r	.	.	4r	.	.	.	.	.	.	.	.
.	8d\	.	8ff# 8cc\	.	8aa\	.	.	.	.	.	.	.	.	.	.	.	.	.	.	.	.	.	.	.
8D\	.	.	.	.	.	.	.	.	.	.	.	.	.	.	.	.	.	.	.	.	.	.	.	.
.	16d\Jk	.	16ff#Jk 16cc\	.	16aa\Jk	.	.	.	.	.	.	.	.	.	.	.	.	.	.	.	.	.	.	.
!	!	!	!	!	!	!	!	!	!	!	!	!	!	!	!	!	!	!	!	!	!LO:LB:g=original	!	!	!
=20	=20	=20	=20	=20	=20	=20	=20	=20	=20	=20	=20	=20	=20	=20	=20	=20	=20	=20	=20	=20	=20	=20	=20	=20
!	!	!LO:DY:t=pf.	!LO:TX:t=P:problem=mixed beam	!	!	!	!	!	!	!	!	!	!LO:SIC:v:l:s=pas-	!	!	!	!	!	!	!	!	!	!	!
8C#X\L	16e\KL	fp	16gg\KL	fp	16bb-X\KL	fp	4C#X\	paſ-	.	4.en\	paſ-	.	4.g\	pa-	.	4.b-\	paſ-	.	2ryy	2ryy	4cc#X\	.	2bb-\	fp
.	8e\	.	8g/	.	8b-\	.	.	.	.	.	.	.	.	.	.	.	.	.	.	.	.	.	.	.
8C#\J	.	.	.	.	.	.	.	.	.	.	.	.	.	.	.	.	.	.	.	.	.	.	.	.
.	8f\	.	8g/	.	8b-\	.	.	.	.	.	.	.	.	.	.	.	.	.	.	.	.	.	.	.
8Cn\L	.	.	.	.	.	.	4Cn\	-sus	.	.	.	.	.	.	.	.	.	.	.	.	4gg\	.	.	.
.	8f\	.	8g/	.	8b-\	.	.	.	.	.	.	.	.	.	.	.	.	.	.	.	.	.	.	.
8C\J	.	.	.	.	.	.	.	.	.	8e\	-sus	.	8g\	-sus	.	8b-\	-sus	.	.	.	.	.	.	.
.	16f\Jk	.	16g/Jk	.	16b-\Jk	.	.	.	.	.	.	.	.	.	.	.	.	.	.	.	.	.	.	.
!LO:LB:g=original	!	!	!	!	!	!	!LO:LB:g=original	!	!	!	!	!	!LO:LB:g=original	!	!	!	!	!	!	!	!	!	!	!
=21	=21	=21	=21	=21	=21	=21	=21	=21	=21	=21	=21	=21	=21	=21	=21	=21	=21	=21	=21	=21	=21	=21	=21	=21
!	!	!LO:DY:t=pf.	!LO:TX:t=P:problem=mixed beam	!	!LO:TX:t=P:problem=mixed beam	!	!	!	!	!	!	!	!	!	!	!	!	!	!	!	!	!	!	!
8C\L	16f\KL	fp	16ff\KL	fp	16aa\KL	fp	4.C\	et	.	8f\L	Et-	.	4.f\	et	.	4.a\	et	.	2ryy	2ryy	2ff\	.	2aa\	fp
.	8c\	.	8f/	.	8a/	.	.	.	.	.	.	.	.	.	.	.	.	.	.	.	.	.	.	.
8C\J	.	.	.	.	.	.	.	.	.	8c\J	.	.	.	.	.	.	.	.	.	.	.	.	.	.
.	8c\	.	8f/	.	8a/	.	.	.	.	.	.	.	.	.	.	.	.	.	.	.	.	.	.	.
8r	.	.	.	.	.	.	.	.	.	4c\	-se-	.	.	.	.	.	.	.	.	.	.	.	.	.
.	8c\	.	8f/	.	8a/	.	.	.	.	.	.	.	.	.	.	.	.	.	.	.	.	.	.	.
8C\	.	.	.	.	.	.	8C\	se-	.	.	.	.	8f\	se-	.	8a\	se-	.	.	.	.	.	.	.
.	16c\Jk	.	16f/Jk	.	16a/Jk	.	.	.	.	.	.	.	.	.	.	.	.	.	.	.	.	.	.	.
!	!	!	!	!	!	!	!	!	!	!LO:LB:g=original	!	!	!	!	!	!	!	!	!	!	!	!	!	!
=22	=22	=22	=22	=22	=22	=22	=22	=22	=22	=22	=22	=22	=22	=22	=22	=22	=22	=22	=22	=22	=22	=22	=22	=22
!	!	!	!LO:TX:t=P:problem=mixed beam	!	!LO:TX:t=P:problem=mixed beam	!	!	!	!	!	!	!	!	!	!	!	!	!	!	!	!	!	!	!
8BBn\L	16d\KL	.	16ff\KL	fp	16aa-X\KL	.	4.BBn\	-pul-	.	4.d\	-pul-	.	4.f\	-pul-	.	4.a-X\	-pul-	.	2ryy	2ryy	2ff\	.	2aa-X\	fp
.	8d\	.	8f/	.	8a-X/	.	.	.	.	.	.	.	.	.	.	.	.	.	.	.	.	.	.	.
8BB\J	.	.	.	.	.	.	.	.	.	.	.	.	.	.	.	.	.	.	.	.	.	.	.	.
.	8d\	.	8f/	.	8a-/	.	.	.	.	.	.	.	.	.	.	.	.	.	.	.	.	.	.	.
8r	.	.	.	.	.	.	.	.	.	.	.	.	.	.	.	.	.	.	.	.	.	.	.	.
.	8d\	.	8f/	.	8a-/	.	.	.	.	.	.	.	.	.	.	.	.	.	.	.	.	.	.	.
8BB\	.	.	.	.	.	.	8BB\	-tus	.	8d\	-tus	.	8f\	-tus	.	8a-\	-tus	.	.	.	.	.	.	.
.	16d\Jk	.	16f/Jk	.	16a-/Jk	.	.	.	.	.	.	.	.	.	.	.	.	.	.	.	.	.	.	.
!	!LO:LB:g=original	!	!	!	!LO:LB:g=original	!	!	!	!	!	!	!	!	!	!	!LO:LB:g=original	!	!	!	!	!	!	!	!
=23	=23	=23	=23	=23	=23	=23	=23	=23	=23	=23	=23	=23	=23	=23	=23	=23	=23	=23	=23	=23	=23	=23	=23	=23
*tremolo	*	*	*	*	*	*	*	*	*	*	*	*	*	*	*	*	*	*	*	*	*	*	*	*
!	!	!	!	!	!	!	!	!	!	!	!	!	!	!	!	!	!	!	!	!	!	!	!LO:TX:t=P:problem=poziomy znak "x" pod nutą	!
8BB-X/L	16d/KL	.	16f/KL	fp	16g#X\KL	fp	8r	.	.	8r	.	.	8r	.	.	8ryy	.	.	2ryy	2ryy	2dd\	.	2gg#X\	.
.	8B-/	.	8d/	.	8gg#X\	.	.	.	.	.	.	.	.	.	.	.	.	.	.	.	.	.	.	.
8BB-/	.	.	.	.	.	.	8BB-X\	se-	.	8d\	se-	.	8f\	se-	.	8g#X\	se-	.	.	.	.	.	.	.
.	8B-/	.	8d/	.	8gg#\	<	.	.	.	.	.	.	.	.	.	.	.	.	.	.	.	.	.	.
8BB-/	.	.	.	.	.	.	8BB-\	-pul-	.	8d\	-pul-	.	8e\	-pul-	.	8g#\	-pul-	.	.	.	.	.	.	.
.	8B-/	.	8d/	.	8gg#\	.	.	.	.	.	.	.	.	.	.	.	.	.	.	.	.	.	.	.
8BB-/J	.	.	.	.	.	.	8BB-\	-tus	.	8d\	-tus	.	8d\	-tus	.	8g#\	-tus	.	.	.	.	.	.	.
.	16B-/Jk	.	16d/Jk	.	16gg#\Jk	[[	.	.	.	.	.	.	.	.	.	.	.	.	.	.	.	.	.	.
*Xtremolo	*	*	*	*	*	*	*	*	*	*	*	*	*	*	*	*	*	*	*	*	*	*	*	*
=24	=24	=24	=24	=24	=24	=24	=24	=24	=24	=24	=24	=24	=24	=24	=24	=24	=24	=24	=24	=24	=24	=24	=24	=24
!LO:TX:b:i:t=pedal.	!	!	!	!	!LO:TX:t=P:problem=mixed beam	!	!	!	!	!	!	!	!	!	!	!	!	!	!	!	!	!	!	!
2AA/	8A/	.	8c#X/	.	(16aa\LL	fp	4AA/	est	.	4c#X\	est	.	8e\	est	.	8a\	est	.	2ryy	2ryy	8cc#X\	.	8aa\	.
.	.	.	.	.	16a/)	.	.	.	.	.	.	.	.	.	.	.	.	.	.	.	.	.	.	.
.	8r	.	8r	.	16a|/	.	.	.	.	.	.	.	8r	.	.	8r	.	.	.	.	8r	.	8r	.
.	.	.	.	.	16a|/JJ	.	.	.	.	.	.	.	.	.	.	.	.	.	.	.	.	.	.	.
.	8c#X\L	.	(8e/L	.	(16gg\LL	.	4r	.	.	4r	.	.	4r	.	.	4r	.	.	.	.	(8cc#\L	.	(8ee\L	p
.	.	.	.	.	16a\	.	.	.	.	.	.	.	.	.	.	.	.	.	.	.	.	.	.	.
.	8d\J	.	8f/J)	.	16ff\	.	.	.	.	.	.	.	.	.	.	.	.	.	.	.	8dd\J)	.	8ff\J)	.
.	.	.	.	.	16a\JJ)	.	.	.	.	.	.	.	.	.	.	.	.	.	.	.	.	.	.	.
=25	=25	=25	=25	=25	=25	=25	=25	=25	=25	=25	=25	=25	=25	=25	=25	=25	=25	=25	=25	=25	=25	=25	=25	=25
!	!	!	!	!	!	!	!	!	!	!	!	!	!	!	!	!	!	!	!	!	!LO:SIC:v:s=(8ee\L	!	!	!
2AA/	8e\L	.	8g/L	.	(16ee\LL	.	4r	.	.	4r	.	.	4r	.	.	4r	.	.	2ryy	2ryy	(8ff\L	.	(8gg\L	.
.	.	.	.	.	16a\	.	.	.	.	.	.	.	.	.	.	.	.	.	.	.	.	.	.	.
.	8f\	.	8a/J	.	16dd\	.	.	.	.	.	.	.	.	.	.	.	.	.	.	.	8dd\)	.	8ff\)	.
.	.	.	.	.	16a\JJ)	.	.	.	.	.	.	.	.	.	.	.	.	.	.	.	.	.	.	.
!	!	!	!	!	!	!	!	!	!LO:DY:a	!	!	!LO:DY:a	!	!	!LO:DY:a	!	!	!LO:DY:a	!	!	!	!	!	!
.	8e\	.	8g/L	.	(16cc#X\LL	.	4AA/	se-	pp	4c#X\	se-	pp	4e\	se-	p	4b-\	se-	pp	.	.	8cc#X|\J	.	8ee\J	.
.	.	.	.	.	16bb-\)	.	.	.	.	.	.	.	.	.	.	.	.	.	.	.	.	.	.	.
.	8c#X\J	.	8e/J	.	16bb-'\	.	.	.	.	.	.	.	.	.	.	.	.	.	.	.	8r	.	8r	.
.	.	.	.	.	16bb-'\JJ	.	.	.	.	.	.	.	.	.	.	.	.	.	.	.	.	.	.	.
!	!	!	!LO:LB:g=original	!	!	!	!	!	!	!	!	!	!	!	!	!	!	!	!	!	!	!	!	!
=26	=26	=26	=26	=26	=26	=26	=26	=26	=26	=26	=26	=26	=26	=26	=26	=26	=26	=26	=26	=26	=26	=26	=26	=26
!LO:TX:t=P:problem=brak taktu nr 26	!	!	!	!	!	!	!	!	!	!	!	!	!	!	!	!	!	!	!	!	!	!	!	!
2ryy	4d\	.	4f/	.	(16bb-\LL	.	4.AA/	-pul-	.	4.d\	-pul-	.	4.f\	-pul-	.	4a\	-pul-	.	2ryy	2ryy	8r	.	8r	.
.	.	.	.	.	16aa\)	.	.	.	.	.	.	.	.	.	.	.	.	.	.	.	.	.	.	.
!	!	!	!	!	!	!	!	!	!	!	!	!	!	!	!	!	!	!	!	!	!LO:TX:t=P:problem=mixed beam	!	!	!
.	.	.	.	.	16aa'\	.	.	.	.	.	.	.	.	.	.	.	.	.	.	.	8ff\L	.	8aa\L	.
.	.	.	.	.	16aa'\JJ	.	.	.	.	.	.	.	.	.	.	.	.	.	.	.	.	.	.	.
.	8.d\L	.	8.f/L	.	(16aa\LL	.	.	.	.	.	.	.	.	.	.	4g#X\	-tus	.	.	.	8dd\	.	(8ff\	.
.	.	.	.	.	16gg#X\)	.	.	.	.	.	.	.	.	.	.	.	.	.	.	.	.	.	.	.
.	.	.	.	.	16gg#'\	.	8AA/	-tus	.	8Bn\	-tus	.	8d\	-tus	.	.	.	.	.	.	8f/J	.	8dd\J)	.
.	16Bn\Jk	.	16d/Jk	.	16gg#'\JJ	.	.	.	.	.	.	.	.	.	.	.	.	.	.	.	.	.	.	.
=27	=27	=27	=27	=27	=27	=27	=27	=27	=27	=27	=27	=27	=27	=27	=27	=27	=27	=27	=27	=27	=27	=27	=27	=27
!LO:TX:t=P:problem=mixed beam	!	!	!	!	!LO:TX:t=P:problem=mixed beam	!	!	!	!	!	!	!	!	!	!	!	!	!	!	!	!	!	!	!
8AA/L	8A/L	.	8c#X/L	.	8aa\L	.	4AA/	est.	.	4c#X\	est.	.	4e\	est.	.	4a\	est.	.	2ryy	2ryy	8e/	.	8cc#X\	.
!	!	!	!	!	!	!LO:HP:t=cres.	!	!	!	!	!	!	!	!	!	!	!	!	!	!	!	!	!	!
8A\	8A 8E/	.	8c#/	.	8a/	<	.	.	.	.	.	.	.	.	.	.	.	.	.	.	8r	.	8r	.
8E\	8A 8E/	.	8c#/	.	8a/	.	4r	.	.	4r	.	.	4r	.	.	4r	.	.	.	.	8cc#X\L	.	8ee'\L	pp
8C#X\J	8AJ 8E/	.	8c#/J	.	8a/J	.	.	.	.	.	.	.	.	.	.	.	.	.	.	.	8cc#\J	.	8ee'\J	.
=28	=28	=28	=28	=28	=28	=28	=28	=28	=28	=28	=28	=28	=28	=28	=28	=28	=28	=28	=28	=28	=28	=28	=28	=28
!	!	!	!LO:SIC:v:s=4c#/	!	!	!	!	!	!	!LO:TX:a:t=1.	!	!	!	!	!	!LO:TX:b:i:t=Verte	!	!	!	!	!	!	!	!
4AA;/	4A 4E/	.	4c/	.	4a;/	.	2r;	.	.	2r	.	.	2r;	.	.	2r;	.	.	2ryy	2ryy	4cc#X;\	.	4ee;\	.
4r	4r	.	4r	.	4r;	.	.	.	.	.	.	.	.	.	.	.	.	.	.	.	4r	.	4r	.
==	==	==	==	==	==	==	==	==	==	==	==	==	==	==	==	==	==	==	==	==	==	==	==	==
*-	*-	*-	*-	*-	*-	*-	*-	*-	*-	*-	*-	*-	*-	*-	*-	*-	*-	*-	*-	*-	*-	*-	*-	*-
!!!system-decoration: [(g1)][(g2)][(g3)][(g4)]<s12>
!!!RDF**kern: > = above
!!!RDF**kern: < = below
!!!RDF**kern: | = vertical stroke
!!!RDF**dynam: fp = "fp."
!!!RDF**dynam: rf = "rf."
!!!RDF**dynam: p = "p."
!!!RDF**dynam: pp = "pp."
!!!RDF**dynam: f = "f."
!!!ENC: Andrzej Borzym
!!!END: 2020-09-15
!!!AIN: 1 alto 1 bass 2 clars 2 cor 1 organ 1 soprn 1 tenor 1 viola 2 violn
!!!ENC: Andrzej Kubiczek
!!!END: 2022-01-30
